packages/core/src/svgs/tokens/branded/RVST.svg

<svg width="24" height="24" viewBox="0 0 24 24" fill="none" xmlns="http://www.w3.org/2000/svg">
<path d="M9.76377 6.86363C10.4492 6.5796 11.1838 6.43336 11.9255 6.43323C12.6674 6.4331 13.402 6.57909 14.0875 6.86289C14.7729 7.14666 15.3957 7.56268 15.9204 8.08716C16.4451 8.61165 16.8614 9.23433 17.1454 9.91972C17.4294 10.605 17.5756 11.3396 17.5757 12.0815C17.5758 12.8233 17.4299 13.5579 17.1461 14.2433C16.8623 14.9288 16.4463 15.5517 15.9218 16.0763C15.3974 16.601 14.7747 17.0172 14.0893 17.3012C12.7052 17.8748 11.1499 17.8751 9.76556 17.302C8.38126 16.7288 7.28134 15.6293 6.70773 14.2452C6.13414 12.861 6.13387 11.3058 6.70699 9.92151C7.28012 8.53716 8.37967 7.43722 9.76377 6.86363ZM11.9266 7.30441C11.2991 7.30441 10.6777 7.42799 10.0981 7.6681C9.51831 7.90822 8.99164 8.26017 8.54796 8.70385C8.10428 9.14753 7.75234 9.67426 7.51221 10.2539C7.27209 10.8337 7.14851 11.4549 7.14851 12.0824C7.14851 12.7099 7.27209 13.3313 7.51221 13.9109C7.75234 14.4906 8.10428 15.0173 8.54796 15.461C8.99164 15.9047 9.51831 16.2567 10.0981 16.4968C10.6777 16.7369 11.2991 16.8605 11.9266 16.8605C13.1937 16.8605 14.4091 16.3571 15.3051 15.461C16.2011 14.5649 16.7045 13.3496 16.7045 12.0824C16.7045 10.8152 16.2011 9.59993 15.3051 8.70385C14.4091 7.8078 13.1937 7.30441 11.9266 7.30441Z" fill="black"/>
<path d="M4.86256 5.01807C5.78627 4.07258 6.88844 3.31979 8.10517 2.8033C9.32188 2.28681 10.629 2.0169 11.9508 2.0092C13.2726 2.00151 14.5829 2.25618 15.8056 2.75846C17.0282 3.26074 18.139 4.00064 19.0737 4.93531C20.0083 5.86998 20.7483 6.98084 21.2506 8.20351C21.7528 9.42617 22.0076 10.7363 21.9998 12.0581C21.9921 13.3799 21.7222 14.6871 21.2058 15.9038C20.6892 17.1206 19.9365 18.2227 18.991 19.1464C17.1099 20.9841 14.5804 22.0061 11.9508 21.9908C9.32133 21.9754 6.80377 20.924 4.94436 19.0647C3.08494 17.2052 2.03355 14.6877 2.01824 12.0581C2.00293 9.42864 3.02493 6.89903 4.86256 5.01807ZM11.9268 2.96111C9.50769 2.96111 7.18767 3.92209 5.47713 5.63264C3.76657 7.34319 2.8056 9.66313 2.8056 12.0823C2.8056 14.5014 3.76657 16.8214 5.47713 18.5319C7.18767 20.2425 9.50769 21.2034 11.9268 21.2034C14.3458 21.2034 16.6658 20.2425 18.3763 18.5319C20.0869 16.8214 21.0479 14.5014 21.0479 12.0823C21.0479 9.66313 20.0869 7.34319 18.3763 5.63264C16.6658 3.92209 14.3458 2.96111 11.9268 2.96111Z" fill="black"/>
<path d="M8.13571 3.73726C8.0296 3.7264 7.93118 3.67693 7.85916 3.59826C7.78714 3.51958 7.74655 3.41718 7.7451 3.31052C7.74364 3.20387 7.78144 3.10041 7.85129 3.0198C7.92115 2.93918 8.01818 2.88706 8.12396 2.87333L8.12983 3.30823V2.87333C8.16705 2.87189 8.20429 2.87189 8.2415 2.87333C8.31202 2.87333 8.41781 2.87333 8.54122 2.88509C10.0242 2.96813 11.4771 3.33733 12.8197 3.97234C13.9951 4.53652 15.194 5.40633 16.0873 6.7169C16.9866 8.03924 17.5742 9.78473 17.5742 12.0826C17.5742 12.1398 17.5629 12.1963 17.5411 12.2491C17.5192 12.3019 17.4873 12.3498 17.4468 12.3902C17.4065 12.4305 17.3585 12.4626 17.3058 12.4844C17.253 12.5064 17.1964 12.5176 17.1394 12.5176C17.0822 12.5176 17.0257 12.5064 16.9729 12.4844C16.9201 12.4626 16.8722 12.4305 16.8318 12.3902C16.7915 12.3498 16.7594 12.3019 16.7376 12.2491C16.7156 12.1963 16.7044 12.1398 16.7044 12.0826C16.7044 9.93749 16.1638 8.36836 15.3704 7.20471C14.629 6.14303 13.6189 5.29728 12.4436 4.75399C11.0997 4.12136 9.6383 3.77703 8.15335 3.74313H8.13571V3.73726ZM17.3392 3.99584C17.5507 3.8783 17.8094 3.94882 17.9269 4.1604L17.5507 4.37197L17.9328 4.1604V4.16627C18.0038 4.2832 18.0666 4.40496 18.1208 4.53065C18.7675 5.87692 19.1581 7.33174 19.2727 8.82089C19.3668 10.1315 19.2139 11.6066 18.544 13.0347C17.8681 14.4746 16.6809 15.8499 14.7474 16.9723C14.6983 17.0071 14.6425 17.0313 14.5836 17.0435C14.5247 17.0555 14.4639 17.0553 14.4051 17.0428C14.3463 17.0302 14.2907 17.0055 14.2419 16.9704C14.1931 16.9353 14.1521 16.8904 14.1215 16.8386C14.0909 16.7868 14.0715 16.7292 14.0642 16.6695C14.0571 16.6099 14.0623 16.5493 14.0797 16.4917C14.0971 16.4341 14.1262 16.3807 14.1653 16.3351C14.2043 16.2892 14.2525 16.2521 14.3066 16.2259C16.105 15.1799 17.1628 13.9339 17.7564 12.6704C18.2936 11.4853 18.5163 10.1817 18.4029 8.88553C18.2863 7.38738 17.8685 5.92817 17.1746 4.5953V4.58943C17.1463 4.53966 17.1281 4.48481 17.1211 4.42803C17.1141 4.37124 17.1184 4.31362 17.1337 4.25848C17.149 4.20334 17.175 4.15175 17.2102 4.10669C17.2455 4.06161 17.2892 4.02394 17.3392 3.99584ZM2.82287 11.2598C2.83724 11.2336 2.85293 11.2081 2.86989 11.1835L3.01095 10.9366C3.73712 9.73179 4.6866 8.67654 5.80841 7.82766C6.84205 7.0461 8.07797 6.57702 9.36993 6.47595C10.7628 6.38779 12.4083 6.74629 14.2948 7.93346C14.3431 7.96682 14.3976 7.99008 14.455 8.00186C14.5125 8.01364 14.5717 8.01367 14.6292 8.00197C14.6866 7.99026 14.7411 7.96706 14.7893 7.93376C14.8376 7.90045 14.8786 7.85774 14.9099 7.80816C14.9413 7.75859 14.9623 7.7032 14.9716 7.64532C14.981 7.58744 14.9786 7.52825 14.9645 7.47134C14.9503 7.41442 14.925 7.36094 14.8896 7.31411C14.8543 7.26728 14.8099 7.22806 14.7592 7.19882C12.7375 5.92939 10.9155 5.50624 9.3111 5.61203C7.85649 5.72257 6.46377 6.24661 5.29711 7.12243C3.95457 8.11521 2.84699 9.3913 2.05299 10.8602V10.8661L2.435 11.0659L2.04711 10.8661C2.02126 10.917 2.00568 10.9726 2.00129 11.0295C1.99689 11.0865 2.00376 11.1437 2.02151 11.198C2.03924 11.2523 2.0675 11.3026 2.10466 11.346C2.14182 11.3894 2.18717 11.4249 2.23812 11.4509C2.28905 11.4768 2.34459 11.4923 2.40154 11.4967C2.45849 11.5011 2.51575 11.4942 2.57006 11.4765C2.62435 11.4587 2.67463 11.4304 2.71801 11.3933C2.76138 11.3561 2.79702 11.3109 2.82287 11.2598ZM9.69905 7.35163C9.82246 7.56321 9.74608 7.82179 9.54039 7.93933C7.70082 8.97956 6.62531 10.2138 6.02586 11.4714C5.48223 12.6524 5.26121 13.9562 5.38527 15.2503C5.5172 16.7533 5.9552 18.2132 6.67234 19.5406L6.67821 19.5582C6.73667 19.658 6.75309 19.7769 6.72388 19.8888C6.69468 20.0006 6.62223 20.0963 6.52247 20.1547C6.42272 20.2132 6.30383 20.2296 6.19195 20.2004C6.08008 20.1711 5.98441 20.0987 5.92595 19.999L6.30208 19.7757L5.92595 19.9932V19.9873L5.9142 19.9696C5.84911 19.8544 5.78834 19.7367 5.732 19.617C5.06497 18.2705 4.65443 16.8117 4.52134 15.3151C4.38678 13.8712 4.63615 12.4175 5.24422 11.1012C5.92595 9.6672 7.13662 8.30371 9.1113 7.18707C9.3229 7.06954 9.58152 7.14593 9.69905 7.35163ZM6.7311 11.6478C6.97206 11.6594 7.16012 11.8651 7.14249 12.1003C7.04846 14.2455 7.54213 15.8028 8.31791 16.9547C9.06247 18.0215 10.0877 18.8616 11.2799 19.382C12.6896 20.021 14.2164 20.3612 15.7641 20.381H15.7818C15.888 20.3911 15.9869 20.4398 16.0594 20.518C16.1321 20.5963 16.1735 20.6984 16.1757 20.8051C16.1778 20.9118 16.1408 21.0156 16.0714 21.0968C16.002 21.1778 15.9052 21.2306 15.7993 21.2449L15.7877 20.81L15.7936 21.2449H15.7877C15.7504 21.2458 15.7132 21.2458 15.6759 21.2449C15.5995 21.2449 15.4997 21.2449 15.3586 21.2332C13.8256 21.1538 12.3199 20.7954 10.9155 20.1753C9.57714 19.5863 8.42791 18.6384 7.59502 17.4366C6.70759 16.1143 6.17278 14.363 6.27857 12.0651C6.29033 11.824 6.49603 11.636 6.7311 11.6537V11.6478ZM21.5999 12.7056C21.8233 12.8172 21.9115 13.0759 21.8056 13.2934V13.2993C21.7434 13.426 21.6747 13.5495 21.5999 13.6695C20.8416 14.9742 19.8378 16.1198 18.6438 17.0429C17.494 17.9293 16.1121 18.4641 14.6651 18.5826C13.0725 18.6942 11.2446 18.2829 9.20538 17.0311C9.15253 17.0036 9.10594 16.9654 9.06849 16.9191C9.03103 16.8727 9.00348 16.8193 8.98757 16.7618C8.97165 16.7043 8.96769 16.6443 8.97594 16.5853C8.9842 16.5263 9.00449 16.4697 9.03555 16.4188C9.06663 16.368 9.10781 16.3241 9.15654 16.2898C9.20524 16.2555 9.2605 16.2317 9.31892 16.2196C9.3772 16.2077 9.4374 16.2077 9.49568 16.2199C9.5541 16.2321 9.60923 16.2562 9.65791 16.2906C11.5679 17.466 13.2193 17.8128 14.6063 17.7128C15.8868 17.6075 17.1093 17.134 18.1267 16.3493C19.3352 15.4322 20.3249 14.2578 21.024 12.9113C21.0491 12.86 21.0841 12.8141 21.1268 12.7762C21.1696 12.7384 21.2195 12.7095 21.2736 12.6908C21.3276 12.6723 21.3848 12.6646 21.4418 12.6682C21.4987 12.6716 21.5546 12.6864 21.6058 12.7115L21.5999 12.7056ZM10.4689 10.3195H12.3202L12.0028 9.73179H10.4748V10.3195H10.4689ZM12.1674 9.74359L12.2556 9.91994C12.2864 9.96793 12.3158 10.0169 12.3436 10.0668L12.3906 10.155C12.4181 10.2052 12.4476 10.2541 12.4788 10.3018C12.5058 10.3522 12.5353 10.4013 12.567 10.4489L12.667 10.6193L12.6904 10.6604C12.7359 10.7485 12.7849 10.8347 12.8373 10.9189C12.8784 11.0012 12.9314 11.0366 12.9431 10.9896C12.9431 10.9778 12.9666 10.9307 13.0018 10.8896C13.0204 10.8597 13.0361 10.8283 13.0489 10.7955L13.09 10.7368L13.1253 10.678L13.1841 10.5782C13.3075 10.3666 13.3721 10.2314 13.3721 10.1902C13.3721 10.155 13.3193 10.0961 13.2193 10.0198C13.1018 9.93749 13.1018 9.93159 12.9902 9.8788C12.8798 9.82408 12.7634 9.78267 12.6434 9.75538C12.4855 9.73481 12.3261 9.73083 12.1674 9.74359ZM13.4603 10.3489C13.4537 10.3603 13.4478 10.3721 13.4427 10.3841L13.4132 10.443C13.3981 10.4616 13.3844 10.4812 13.3721 10.5018L13.3193 10.5957L13.2605 10.6839L13.2429 10.7368C13.1685 10.8436 13.1017 10.9555 13.043 11.0718C13.0312 11.0882 13.0213 11.106 13.0136 11.1246L12.9784 11.1835C12.9648 11.202 12.953 11.2216 12.9431 11.2423C12.9431 11.248 12.9255 11.2892 12.8961 11.3303C12.8585 11.3846 12.8252 11.4415 12.7961 11.5008C12.7469 11.5798 12.6999 11.6601 12.6552 11.7417L12.5963 11.8476C12.567 11.9063 12.5847 11.9063 12.7139 11.9181L13.1664 11.9299C13.5602 11.9299 13.5191 11.9417 13.6014 11.7594C13.6954 11.5478 13.7189 11.4068 13.7189 11.16C13.7297 10.9156 13.6771 10.6726 13.5661 10.4547C13.5073 10.343 13.4839 10.3195 13.4603 10.3489ZM10.5805 10.4371C10.5335 10.443 10.5041 10.4488 10.4923 10.4664C10.4748 10.9011 10.471 11.3362 10.4807 11.7712C10.4866 11.9063 10.4923 11.924 10.51 11.924C10.5277 11.924 10.5453 11.9005 10.5689 11.8594C10.6606 11.6834 10.7585 11.5109 10.8626 11.3421L10.9037 11.2775L10.9273 11.2364C11.0355 11.0637 11.1374 10.8874 11.2329 10.7075L11.2682 10.6486L11.321 10.5546C11.3681 10.4723 11.374 10.4664 11.3563 10.4547C11.3446 10.443 10.7334 10.4312 10.5805 10.443V10.4371ZM11.0096 11.3598L10.4807 12.259V14.4335H11.3387V12.6704H11.7619L11.0801 11.3833C11.0801 11.3715 11.039 11.3362 11.0272 11.3362L11.0096 11.3598ZM11.6442 12.0826L12.8784 14.4335H13.86L12.8256 12.5058L13.3957 12.0826H11.6442Z" fill="black"/>
</svg>

<svg xmlns="http://www.w3.org/2000/svg" width="24" height="24" fill="none" viewBox="0 0 24 24">
    <path fill="#000" d="M9.764 6.864a5.65 5.65 0 1 1 4.326 10.438A5.65 5.65 0 0 1 9.764 6.864m2.163.44a4.778 4.778 0 1 0 0 9.556 4.778 4.778 0 0 0 0-9.556"/>
    <path fill="#000" d="M4.863 5.018a9.991 9.991 0 1 1 14.293 13.964A9.991 9.991 0 0 1 4.863 5.018m7.064-2.057a9.121 9.121 0 1 0 0 18.242 9.121 9.121 0 0 0 0-18.242"/>
    <path fill="#000" d="M8.136 3.737a.435.435 0 0 1-.012-.864l.006.435v-.435h.111c.071 0 .177 0 .3.012 1.483.083 2.936.452 4.279 1.087 1.175.565 2.374 1.434 3.267 2.745.9 1.322 1.487 3.068 1.487 5.366a.436.436 0 0 1-.742.307.44.44 0 0 1-.128-.307c0-2.146-.54-3.715-1.334-4.878a7.3 7.3 0 0 0-2.926-2.451 10.6 10.6 0 0 0-4.29-1.01h-.018zm9.203.259a.427.427 0 0 1 .588.164l-.376.212.382-.212v.006q.106.176.188.365a12 12 0 0 1 1.152 4.29c.094 1.31-.06 2.786-.729 4.214-.676 1.44-1.863 2.815-3.797 3.937a.436.436 0 0 1-.683-.303.44.44 0 0 1 .243-.443c1.798-1.046 2.856-2.292 3.45-3.556a7.57 7.57 0 0 0 .646-3.784 11.2 11.2 0 0 0-1.228-4.29v-.007a.434.434 0 0 1 .164-.593M2.823 11.26l.047-.076.14-.247a11.1 11.1 0 0 1 2.798-3.11 6.8 6.8 0 0 1 3.562-1.35c1.393-.088 3.038.27 4.925 1.457a.436.436 0 0 0 .67-.462.44.44 0 0 0-.206-.272c-2.021-1.27-3.844-1.693-5.448-1.587a7.65 7.65 0 0 0-4.014 1.51 11.4 11.4 0 0 0-3.244 3.738v.006l.382.2-.388-.2a.435.435 0 1 0 .776.394m6.876-3.908a.425.425 0 0 1-.159.587c-1.84 1.04-2.915 2.275-3.514 3.532a7.36 7.36 0 0 0-.64 3.78 11.1 11.1 0 0 0 1.286 4.29l.006.017a.436.436 0 0 1-.752.441l.376-.223-.376.217v-.006l-.012-.017a12.1 12.1 0 0 1-1.393-4.655 8.2 8.2 0 0 1 .723-4.214c.682-1.434 1.893-2.797 3.867-3.914a.43.43 0 0 1 .588.165m-2.968 4.296a.43.43 0 0 1 .411.452c-.094 2.146.4 3.703 1.176 4.855a7.05 7.05 0 0 0 2.962 2.427c1.41.639 2.936.98 4.484.999h.018a.435.435 0 0 1 .017.864l-.011-.435.006.435h-.118c-.076 0-.176 0-.317-.012a12.6 12.6 0 0 1-4.443-1.058 7.9 7.9 0 0 1-3.321-2.738c-.887-1.323-1.422-3.074-1.316-5.372a.43.43 0 0 1 .452-.411zM21.6 12.706c.223.111.311.37.206.587v.006q-.094.19-.206.37a11.7 11.7 0 0 1-2.956 3.374 7.5 7.5 0 0 1-3.979 1.54c-1.592.111-3.42-.3-5.46-1.552a.434.434 0 0 1 .114-.811.44.44 0 0 1 .339.07c1.91 1.176 3.561 1.523 4.948 1.423a6.66 6.66 0 0 0 3.52-1.364 10.2 10.2 0 0 0 2.898-3.438.44.44 0 0 1 .418-.243.4.4 0 0 1 .164.043zM10.469 10.32h1.851l-.317-.588h-1.528v.588zm1.698-.576.089.176q.045.072.088.147l.047.088q.041.076.088.147.04.076.088.147l.1.17.023.041q.069.133.147.259c.041.082.094.118.106.07a.3.3 0 0 1 .059-.1 1 1 0 0 0 .047-.093l.041-.06.035-.058.06-.1c.122-.211.187-.347.187-.388q-.002-.054-.153-.17c-.117-.083-.117-.088-.229-.141a1.6 1.6 0 0 0-.347-.124 2.3 2.3 0 0 0-.476-.011m1.293.605-.017.035-.03.059-.04.059-.054.094-.059.088-.017.053a3 3 0 0 0-.2.335.3.3 0 0 0-.03.053l-.035.059a.4.4 0 0 0-.035.058.3.3 0 0 1-.047.088q-.056.082-.1.17-.075.12-.14.242l-.06.106c-.029.058-.011.058.118.07l.452.012c.394 0 .353.012.435-.17.094-.212.118-.353.118-.6a1.4 1.4 0 0 0-.153-.705c-.059-.112-.082-.136-.106-.106m-2.88.088c-.046.006-.076.012-.088.03q-.026.652-.011 1.304c.006.135.011.153.029.153s.035-.024.059-.065a8 8 0 0 1 .294-.517l.04-.065.024-.04q.163-.26.306-.53l.035-.058.053-.094c.047-.083.053-.089.035-.1a8 8 0 0 0-.775-.012zm.43.923-.53.899v2.175h.859V12.67h.423l-.682-1.287c0-.011-.041-.047-.053-.047zm.634.723 1.234 2.35h.982l-1.034-1.927.57-.423z"/>
</svg>
